site/static/docs/images/icons/ci-cd.svg

<svg fill="none" height="26" viewBox="0 0 26 26" width="26" xmlns="http://www.w3.org/2000/svg"><g fill="#0075ff"><circle cx="13" cy="13" opacity=".15" r="13"/><path clip-rule="evenodd" d="m8.5 11c-1.08579 0-2 .9142-2 2s.91421 2 2 2c.52518 0 1.122-.244 1.8251-.7274.5093-.3502 1.0248-.79 1.5611-1.2726-.5363-.4826-1.0518-.9224-1.5611-1.2726-.7031-.4834-1.29992-.7274-1.8251-.7274zm4.5.9844c-.5896-.5337-1.2039-1.066-1.8251-1.4931-.7969-.54783-1.70008-.9913-2.6749-.9913-1.91421 0-3.5 1.5858-3.5 3.5s1.58579 3.5 3.5 3.5c.97482 0 1.878-.4435 2.6749-.9913.6212-.4271 1.2355-.9594 1.8251-1.4931.5896.5337 1.2039 1.066 1.8251 1.4931.7969.5478 1.7001.9913 2.6749.9913 1.9142 0 3.5-1.5858 3.5-3.5s-1.5858-3.5-3.5-3.5c-.9748 0-1.878.44347-2.6749.9913-.6212.4271-1.2355.9594-1.8251 1.4931zm1.1138 1.0156c.5364.4826 1.0518.9224 1.5611 1.2726.7031.4834 1.2999.7274 1.8251.7274 1.0858 0 2-.9142 2-2s-.9142-2-2-2c-.5252 0-1.122.244-1.8251.7274-.5093.3502-1.0247.79-1.5611 1.2726z" fill-rule="evenodd"/></g></svg>

<svg width="26" height="26" viewBox="0 0 26 26" fill="none" xmlns="http://www.w3.org/2000/svg">
<circle opacity="0.15" cx="13" cy="13" r="13" fill="#0075ff"/>
<path fill-rule="evenodd" clip-rule="evenodd" d="M8.5 11C7.41421 11 6.5 11.9142 6.5 13C6.5 14.0858 7.41421 15 8.5 15C9.02518 15 9.622 14.756 10.3251 14.2726C10.8344 13.9224 11.3499 13.4826 11.8862 13C11.3499 12.5174 10.8344 12.0776 10.3251 11.7274C9.622 11.244 9.02518 11 8.5 11ZM13 11.9844C12.4104 11.4507 11.7961 10.9184 11.1749 10.4913C10.378 9.94347 9.47482 9.5 8.5 9.5C6.58579 9.5 5 11.0858 5 13C5 14.9142 6.58579 16.5 8.5 16.5C9.47482 16.5 10.378 16.0565 11.1749 15.5087C11.7961 15.0816 12.4104 14.5493 13 14.0156C13.5896 14.5493 14.2039 15.0816 14.8251 15.5087C15.622 16.0565 16.5252 16.5 17.5 16.5C19.4142 16.5 21 14.9142 21 13C21 11.0858 19.4142 9.5 17.5 9.5C16.5252 9.5 15.622 9.94347 14.8251 10.4913C14.2039 10.9184 13.5896 11.4507 13 11.9844ZM14.1138 13C14.6502 13.4826 15.1656 13.9224 15.6749 14.2726C16.378 14.756 16.9748 15 17.5 15C18.5858 15 19.5 14.0858 19.5 13C19.5 11.9142 18.5858 11 17.5 11C16.9748 11 16.378 11.244 15.6749 11.7274C15.1656 12.0776 14.6502 12.5174 14.1138 13Z" fill="#0075ff"/>
</svg>
